X:1
T:James Gibb editions
T:Absence, hear thou my protestation - Morley
%%score [ 1 2 ]
L:1/8
Q:1/4=121
M:4/4
K:C
V:1 treble-8 nm="Tenor"
V:2 bass nm="Lute"
V:1
"^John Hoskins\n(1566-1638)" z8 |"^Absence, hear thou my protestation" z8 | z8 | z8 | z8 | z8 | %6
w: ||||||
w: ||||||
w: ||||||
w: ||||||
 z4 (B2 c2) | (d4 d4) | d6"^Thomas Morley\n(1557-1602)" d2 | c4 B4 | ((A3 A) A4) | z4 z2 d2 | %12
w: Ab- sence,|hear *|thou my|pro- tes-|ta\- * tion|A-|
w: Who loves|a *|mis- tress|of such|qua- li- ty|He|
w: My sen-|ses *|want their|out- ward|mo\- * tions,|Which|
w: By *|ab- sence|this good|means I|gain, * *|That|
 c4 A4 | (B2 B6) | z4 c4- | c2 c2 B4 | (A2 A2) z4 | z4 z2 A2 | B2 c2 (d2 d2) | z2 D2 ^F2 G2 | %20
w: gainst thy|strength, *|Dis\-|* tance and|length: *|Do|what thou canst, *|do what thou|
w: soon hath|found *|Af\-|* fec- tion's|ground *|Be-|yond time, place, *|be- yond time,|
w: now with-|in *|Rea\-|* son doth|win, *|Re-|dou- bled in, *|re- dou- bled|
w: I can|catch her|Where|* none can|watch her,|in|some close cor- ner,|in some close|
 G2 B2 c4- | c4 B4 | (A6 A2) | G8 | z8 | z8 | z4 z2 A2 | B4 c4 | d2 f2 e4 | (d4 d4) | z2 d3 A B2 | %31
w: canst for al\-|* te-|ra\- *|tion;|||For|hearts of|tru- est met-|tle *|Ab- sence doth|
w: place, and all|* mor-|ta- li-|ty.|||To|hearts that|can- not va-|ry *|Ab- sence is|
w: in her se\-|* cret|no\- *|tions;|||Like|rich men|that take plea-|sure *|In hid- ing,|
w: cor- ner, cor\-|* ner,|of my|brain.|||There|I em-|brace and there|kiss her,|and so en-|
 (A2 A2) z4 | z2 d3 A B2 | (A2 A2) z2 D2 | ((E>F G) (A B2 A2)) | G2 G2 (B2 c2) | (d8- | d4 (c2 B2 | %38
w: join, *|ab- sence doth|join, * and|time * * doth * *|set- tle, and *|time|* doth *|
w: pre- sent,|ab- sence is|pre- sent, time|doth * * not * *|tar- ry, time *|doth|* not *|
w: more, *|in hid- ing,|more * than|hand\- * * ling, * *|trea- sure, than *|hand\-|* ling, *|
w: joy, *|and so en-|joy * and|so * * * * *|miss her, and *|so||
 A2 G2 A4)) | G2 G2 z4 || z8 | z8 | z4 z2 A2 | B4 c4 | d2 f2 e4 | (d4 d4) | z2 d3 A B2 | %47
w: |set- tle.|||For|hearts of|tru- est met-|tle *|Ab- sence doth|
w: |tar- ry.|||To|hearts that|can- not va-|ry. *|Ab- sence is|
w: |trea- sure.|||Like|rich men|that take plea-|sure *|In hid- ing,|
w: |miss her.|||There|I em-|brace and there|kiss her,|and so en-|
 (A2 A2) z4 | z2 d3 A B2 | (A2 A2) z2 D2 | (E>F G) (A B2 A2) | G2 G2 (B2 c2) | d8- | d4 (c2 B2 | %54
w: join, *|ab- sence doth|join, * and|time * * doth * *|set- tle, and *|time|* doth *|
w: pre- sent,|ab- sence is|pre- sent, time|doth * * not * *|tar- ry, time *|doth|* not *|
w: more, *|in hid- ing,|more * than|hand\- * * ling, * *|trea- sure, than *|hand\-|* ling, *|
w: joy, *|and so en-|joy * and|so * * * * *|miss her, and *|so||
 A2 G2 A4) | G2 G6 |] %56
w: |set- tle.|
w: |tar- ry.|
w: |trea- sure.|
w: |miss her.|
V:2
 G,8 | C8 | C2 G,2 E,2 C,2 | G,4 C,4 | D,8 | G,,8 | G,,6 A,,2 | B,,6 C,2 | D,3 E, ^F,2 G,2 | %9
 A,2 ^F,2 G,4 | D,8 | D,6 B,,2 | C,4 D,4 | G,,8 | C,4 A,,4 | D,4 G,4 | D,6 C,2 | B,,4 A,,4 | %18
 G,,2 A,,2 B,,2 C,2 | D,8 | C,4 A,,4 | ^F,,4 G,,4 | D,8 | G,,6 G,2 | A,4 B,4 | C4 D3 C | %26
 B,3 G, A,2 D,2 | G,4 A,3 G, | F,2 D,2 A,4 | D,8 | D,3 E, ^F,2 G,2 | D,8 | D,3 E, ^F,2 G,2 | %33
 D,6 B,,2 | C,2 E,2 D,4 | G,,8- | G,,2 A,,2 B,,2 C,2 | D,8- | D,8 | G,,6 G,2 || A,4 B,4 | C4 D3 C | %42
 B,3 G, A,2 D,2 | G,4 A,3 G, | F,2 D,2 A,4 | D,8 | D,3 E, ^F,2 G,2 | D,8 | D,3 E, ^F,2 G,2 | %49
 D,6 B,,2 | C,2 E,2 D,4 | G,,8- | G,,2 A,,2 B,,2 C,2 | D,8- | D,8 | G,,8 |] %56

